X:8064
T:Jodler III
C:Trad.
R:Jodler
B:Almrausch, Almliada aus Steiermark, Graz 1884
N:Alt Aussee, 1820
I:140
M:3/4
L:1/8
K:G
dc | (BD G2 AB) | (cD F2 cB) | AD F2 Ac | (dD B2 dc) |
BDGBDB | (cD F2 cB) | (ADFAcD) | G6 ||


